!!!!SEGMENT: pl-gd--ee-2628--007-008_stabile-annibale--sacrarum-modulationum-cum-pervenisset.krn
!!!cenid: 15xx:1097
!!!COM: Stabile, Annibale
!!!COM-rismID: pe30009662
!!!CDT: ~1535-1595/04
!!!CNT: Italian
!!!GTL: Sacrarum modulationum
!!!OTL: Cum pervenisset
!!!OMV: 008
!!!PDT: 1585
!!!AGN:
!!!SMS-siglum: PL-GD
!!!SMS-shelfmark: Ee 2628
!!!SMS-shelfwork: 007-008 G
!!!SMS-variant:
!!!SMS-altvar:
!!!NIFC-rismSourceID: 990060529
!!!NIFC-islandoraID: pl-gd:66139
!!!URL-pdf-islandora: https://repozytorium.nifc.pl/islandora/object/pl-gd%3A66139/datastream/PDF/view
!!!URL-scan: https://polish.musicsources.pl/pl/lokalizacje/galeria/klocki-introligatorskie/673 @EN{Scan on Polish Music Sources Website} @PL{Skany w portalu Dziedzictwo Muzyki Polskiej w otwartym dostępie}
!!!ONB-nifc: UWAGA: Cantus: s. 102-113, Tenore: s. 258-269, Basso: s. 414-425, Quinto: s. 736-747, Sextus: s. 624-632. Dla głosu Alto proszę skorzystać z https://pbc.gda.pl/dlibra/publication/87583/edition/79412/content, s. 25-48. Uwaga: utwory podzielone wg spisu treści dostępnych na końcu ksiąg – proszę sprawdzać sąsiednie tytuły i zwracać uwagę na liczbę głosów. Głosy Quinto i Sextus proszę umieszczać wg ambitusu (może się różnić w zależności od utworu).
!!!AIN: 1 alto 1 bass 1 soprn 1 tenor 1 vox
!!!key: F
**kern	**text	**kern	**text	**kern	**text	**kern	**text	**kern	**text
*part5	*part5	*part4	*part4	*part3	*part3	*part2	*part2	*part1	*part1
*staff5	*staff5	*staff4	*staff4	*staff3	*staff3	*staff2	*staff2	*staff1	*staff1
*I"BASSVS	*	*I"QVINTVS	*	*I"TENOR	*	*I"ALTVS	*	*I"CANTVS	*
*I'B	*	*I'V 5	*	*I'T	*	*I'A	*	*I'S	*
*ICvox	*	*ICvox	*	*ICvox	*	*ICvox	*	*ICvox	*
*Ibass	*	*Ivox	*	*Itenor	*	*Ialto	*	*Isoprn	*
*clefF3	*	*clefC3	*	*clefC3	*	*clefC2	*	*clefG2	*
*k[b-]	*	*k[b-]	*	*k[b-]	*	*k[b-]	*	*k[b-]	*
*F:	*	*F:	*	*F:	*	*F:	*	*F:	*
*M2/1	*	*M2/1	*	*M2/1	*	*M2/1	*	*M2/1	*
*met(C|)	*	*met(C|)	*	*met(C|)	*	*met(C|)	*	*met(C|)	*
=1-	=1-	=1-	=1-	=1-	=1-	=1-	=1-	=1-	=1-
!LO:TX:t=P:problem:podwójnie zapisany znak przykluczowy: BB- B-	!	!	!	!	!	!	!	!LO:TX:t=P:problem:sextusa brak	!
00r	.	0r	.	00r	.	1f	CVm	0r	.
.	.	.	.	.	.	2e/	per-	.	.
.	.	.	.	.	.	2d/	-ue-	.	.
=2-	=2-	=2-	=2-	=2-	=2-	=2-	=2-	=2-	=2-
.	.	0r	.	.	.	1g	-niſ-	1r	.
.	.	.	.	.	.	1f	-ſet	1cc	CVm
=3-	=3-	=3-	=3-	=3-	=3-	=3-	=3-	=3-	=3-
00r	.	0r	.	00r	.	2r	.	2b-/	per-
.	.	.	.	.	.	1f	Bar-	2a/	-ue-
.	.	.	.	.	.	.	.	1dd	-niſ-
.	.	.	.	.	.	2g\	-na-	.	.
=4-	=4-	=4-	=4-	=4-	=4-	=4-	=4-	=4-	=4-
.	.	0r	.	.	.	2a\	-bas	1cc	-ſet
.	.	.	.	.	.	2.f\	An-	.	.
.	.	.	.	.	.	.	.	2r	.
.	.	.	.	.	.	4g\	.	.	.
.	.	.	.	.	.	4a\	.	1cc\	Bar-
.	.	.	.	.	.	4b-\	.	.	.
=5-	=5-	=5-	=5-	=5-	=5-	=5-	=5-	=5-	=5-
00r	.	0r	.	00r	.	2cc\	.	.	.
!	!	!	!	!	!	!LO:N:acc=#	!	!	!
.	.	.	.	.	.	2bn\	-ti-	2dd\	-na-
.	.	.	.	.	.	4cc\	-o-	2ee\	-bas
.	.	.	.	.	.	4b\	.	.	.
.	.	.	.	.	.	4a\	.	2.cc\	An-
.	.	.	.	.	.	4g\	.	.	.
*	*	*	*	*	*	*custos:f	*	*	*
!	!	!	!	!	!	!LO:LB:g=original	!	!	!
=6-	=6-	=6-	=6-	=6-	=6-	=6-	=6-	=6-	=6-
*	*	*	*	*	*	*lig	*	*	*
.	.	1r	.	.	.	1f	.	.	.
.	.	.	.	.	.	.	.	8dd\	.
.	.	.	.	.	.	.	.	8ee\	.
.	.	.	.	.	.	.	.	1ff	.
*	*	*	*	*	*	*col	*	*	*
.	.	1c	CVm	.	.	2.g\	.	.	.
.	.	.	.	.	.	.	.	2ee\	.
*	*	*	*	*	*	*Xlig	*	*	*
.	.	.	.	.	.	4e/	.	.	.
*	*	*	*	*	*	*Xcol	*	*	*
=7-	=7-	=7-	=7-	=7-	=7-	=7-	=7-	=7-	=7-
0r	.	2B-/	per-	00r	.	4f\	.	2dd\	-ti-
.	.	.	.	.	.	4g\	.	.	.
.	.	2A/	-ue-	.	.	2.a\	.	2cc\	-o-
*	*	*	*	*	*	*	*	*lig	*
.	.	1d	-niſ-	.	.	.	.	1f	-chi-
.	.	.	.	.	.	4g\	.	.	.
.	.	.	.	.	.	1f\	.	.	.
=8-	=8-	=8-	=8-	=8-	=8-	=8-	=8-	=8-	=8-
1r	.	2c/	-ſet	.	.	.	.	1g	.
.	.	1c	Bar-	.	.	2e/	-chi-	.	.
*	*	*	*	*	*	*	*	*Xlig	*
1F	CVm	.	.	.	.	2f\	-am	1a	-am
.	.	2d\	-na-	.	.	2f\	An-	.	.
*	*	*	*	*	*	*	*	*custos:b-	*
!	!	!	!	!	!	!	!	!LO:LB:g=original	!
=9-	=9-	=9-	=9-	=9-	=9-	=9-	=9-	=9-	=9-
2E/	per-	2e\	-bas	0r	.	2g\	-ti-	1r	.
2D/	-ue-	2f\	An-	.	.	2a\	-o-	.	.
1G	-niſ-	2d\	-ti-	.	.	2b-y\	-chi-	2r	.
.	.	2e\	-o-	.	.	2g\	-am	1b-\	Cum
=10-	=10-	=10-	=10-	=10-	=10-	=10-	=10-	=10-	=10-
1F	-ſet	2.f\	-chi-	1c	CVm	0r	.	.	.
.	.	.	.	.	.	.	.	2a/	per-
.	.	4e\	.	.	.	.	.	.	.
2r	.	2d\	.	2B-/	per-	.	.	2g/	-ue-
1F\	Bar-	2c/	-am	2A/	-ue-	.	.	2.cc\	-niſ-
=11-	=11-	=11-	=11-	=11-	=11-	=11-	=11-	=11-	=11-
.	.	0r	.	1d	-niſ-	2r	.	.	.
.	.	.	.	.	.	.	.	8b-/	.
.	.	.	.	.	.	.	.	8a/	.
2G\	-na-	.	.	.	.	2g\	Cum	2b-/	.
2A\	-bus	.	.	1c	-ſet	2e/	per-	1cc	-ſet
2.F/	An-	.	.	.	.	2f\	-ue-	.	.
=12-	=12-	=12-	=12-	=12-	=12-	=12-	=12-	=12-	=12-
!	!	!A	!	!	!	!	!	!	!
.	.	0r	.	2r	.	1a	-niſ-	0r	.
4G\	.	.	.	.	.	.	.	.	.
4A\	.	.	.	1c	Bar-	.	.	.	.
4B-\	.	.	.	.	.	.	.	.	.
2c\	.	.	.	.	.	0g	-ſet	.	.
!LO:N:acc=#	!	!	!	!	!	!	!	!	!
2Bn\	-ti-	.	.	2d\	-na-	.	.	.	.
*custos:c	*	*	*	*	*	*custos:f	*	*	*ij
!LO:LB:g=original	!	!LO:LB:g=original	!	!	!	!LO:LB:g=original	!	!	!
=13-	=13-	=13-	=13-	=13-	=13-	=13-	=13-	=13-	=13-
1c	-o-	0r	.	2e\	-bas	.	.	1cc	Cum
.	.	.	.	2c/	An-	.	.	.	.
2.d\	-chi-	.	.	2f\	-ti-	2r	.	2b-/	per-
*	*	*	*	*	*	*	*	*	*
.	.	.	.	2f\	-o-	1f\	Bar-	2a/	-ve-
4c\	.	.	.	.	.	.	.	.	.
=14-	=14-	=14-	=14-	=14-	=14-	=14-	=14-	=14-	=14-
1B-y	.	1r	.	1d	-chi-	.	.	1dd	-nis-
.	.	.	.	.	.	2g\	-na-	.	.
1F	-am	2r	.	0f	-am	2.a\	-bas	2cc\	-set
*	*	*	*	*	*	*	*	*	*Xij
.	.	1A/	Bar-	.	.	.	.	1cc\	Bar-
.	.	.	.	.	.	4b-\	.	.	.
=15-	=15-	=15-	=15-	=15-	=15-	=15-	=15-	=15-	=15-
0r	.	.	.	.	.	2cc\	.	.	.
.	.	2B-/	-na-	.	.	2b-\	An-	2dd\	-na-
.	.	2c/	-bas	2r	.	1a	-ti-	2ee\	-bas
.	.	2.d\	An-	1f\	Bar-	.	.	2.ff\	An-
*	*	*	*	*custos:g	*	*	*	*	*
!	!	!	!	!LO:LB:g=original	!	!	!	!	!
=16-	=16-	=16-	=16-	=16-	=16-	=16-	=16-	=16-	=16-
1r	.	.	.	.	.	1d	-o-	.	.
.	.	4c/	-ti-	.	.	.	.	4ee\	-ti-
.	.	2B-/	-o-	2g\	-na-	.	.	2dd\	-o-
*	*	*	*	*	*	*	*	*custos:cc	*
!	!	!	!	!	!	!	!	!LO:LB:g=original	!
2r	.	1A	-chi-	2a\	-bas	1e	-chi-	2.cc\	-chi-
1A\	Miſ-	.	.	2.a\	An-	.	.	.	.
.	.	.	.	.	.	.	.	4b-/	.
=17-	=17-	=17-	=17-	=17-	=17-	=17-	=17-	=17-	=17-
.	.	1F	-am	.	.	0a	-am	2cc\	.
.	.	.	.	4g\	.	.	.	.	.
2A\	-ſus	.	.	4f\	.	.	.	2.dd\	.
.	.	.	.	4e\	.	.	.	.	.
2A\	Hie-	1r	.	4f\	.	.	.	.	.
.	.	.	.	4e\	.	.	.	4cc\	.
2A\	-ro-	.	.	4e\	.	.	.	4cc\	.
.	.	.	.	8d\	.	.	.	8b-/	.
.	.	.	.	8c\	.	.	.	8a/	.
=18-	=18-	=18-	=18-	=18-	=18-	=18-	=18-	=18-	=18-
2.G\	-ſo-	1r	.	2d\	.	1r	.	1b-	.
.	.	.	.	2e\	-ti-	.	.	.	.
4G\	-ly-	.	.	.	.	.	.	.	.
2F/	-mis	2r	.	1f	-o-	2r	.	1a	-am
2.D/	ab	1f\	Miſ-	.	.	1a\	Miſ-	.	.
=19-	=19-	=19-	=19-	=19-	=19-	=19-	=19-	=19-	=19-
.	.	.	.	1d	-chi-	.	.	0r	.
4E/	.	.	.	.	.	.	.	.	.
4F/	.	2f\	-ſus	.	.	2a\	-ſus	.	.
4G\	.	.	.	.	.	.	.	.	.
*custos:A	*	*	*	*	*	*	*	*	*
!LO:LB:g=original	!	!	!	!	!	!	!	!	!
2A\	.	2f\	Hie-	1c	-am	2a\	Hie-	.	.
2F/	Ec-	2f\	-ro-	.	.	2a\	-ro-	.	.
=20-	=20-	=20-	=20-	=20-	=20-	=20-	=20-	=20-	=20-
*lig	*	*	*	*	*	*	*	*	*
1c	-cle-	2.e\	-ſo-	1r	.	2.g\	-ſo-	1r	.
.	.	4e\	-ly-	.	.	4g\	-li-	.	.
*col	*	*	*	*	*	*	*	*	*
2.d\	.	1d	-mis	2r	.	1f	-mis	2r	.
.	.	.	.	1d\	Miſ-	.	.	1ff\	Miſ-
*Xlig	*	*	*	*	*	*	*	*	*
4d\	-ſi-	.	.	.	.	.	.	.	.
*Xcol	*	*	*	*	*	*	*	*	*
=21-	=21-	=21-	=21-	=21-	=21-	=21-	=21-	=21-	=21-
1D	-a	1r	.	.	.	1.a	ab	.	.
.	.	.	.	2d\	-ſus	.	.	2ff\	-ſus
*	*	*	*	*	*	*	*	*	*
!	!	!LO:LB:g=original	!	!	!	!	!	!	!
*	*	*lig	*	*	*	*	*	*	*
00r	.	1f	ab	2d\	Hie-	.	.	2ff\	Hie-
.	.	.	.	2d\	-ro-	2b-\	Ec-	2ff\	-ro-
*	*	*	*	*custos:c	*	*	*	*	*
!	!	!	!	!LO:LB:g=original	!	!	!	!	!
=22-	=22-	=22-	=22-	=22-	=22-	=22-	=22-	=22-	=22-
.	.	1g	.	2.c/	-ſo-	4cc\	-cle-	2.ee\	-ſo-
.	.	.	.	.	.	8b-\	.	.	.
.	.	.	.	.	.	8a\	.	.	.
.	.	.	.	.	.	4g\	.	.	.
*	*	*	*	*	*	*custos:a	*	*	*
!	!	!	!	!	!	!LO:LB:g=original	!	!	!
.	.	.	.	4c/	-ly-	4a\	.	4ee\	-ly-
*	*	*Xlig	*	*	*	*	*	*	*
.	.	4G/	Ec-	2B-/	-mis	2.b-\	.	1dd	-mis
.	.	4A/	.	.	.	.	.	.	.
.	.	4B-/	.	2.G/	ab	.	.	.	.
*	*	*	*	*	*	*	*	*	*
*	*	*	*	*	*	*	*	*	*
.	.	4c/	.	.	.	4a\	.	.	.
=23-	=23-	=23-	=23-	=23-	=23-	=23-	=23-	=23-	=23-
.	.	2d\	.	.	.	2g\	.	1b-	ab
.	.	.	.	4A/	.	.	.	.	.
.	.	2.d\	-cle-	4B-/	.	4f\	.	.	.
.	.	.	.	4c/	.	4e/	.	.	.
0r	.	.	.	2d\	.	2f\	.	2a/	Ec-
.	.	4e\	.	.	.	.	.	.	.
.	.	4f\	.	2B-/	Ec-	2b-\	-ſi-	2.dd\	-cle-
.	.	4d\	.	.	.	.	.	.	.
=24-	=24-	=24-	=24-	=24-	=24-	=24-	=24-	=24-	=24-
*	*	*lig	*	*	*	*	*	*	*
.	.	1e	.	2.c/	-cle-	0g	-a	.	.
.	.	.	.	.	.	.	.	4cc\	.
.	.	.	.	.	.	.	.	1cc	.
.	.	.	.	4c/	-ſi-	.	.	.	.
*	*	*col	*	*	*	*	*	*	*
!LO:TX:t=P:problem:Verovio nie wyświetla pauzy	!	!	!	!	!	!	!	!	!
1r	.	2.d\	.	1G	-a	.	.	.	.
!	!	!	!	!	!	!	!	!LO:N:acc=#	!
.	.	.	.	.	.	.	.	2bn/	-ſi-
*	*	*Xlig	*	*	*	*	*	*	*
.	.	4d\	-ſi-	.	.	.	.	.	.
*	*	*Xcol	*	*	*	*	*	*	*
=25-	=25-	=25-	=25-	=25-	=25-	=25-	=25-	=25-	=25-
2r	.	1c	-a	1r	.	2r	.	0cc	-a
1F	Et	.	.	.	.	2f\	Et	.	.
.	.	1r	.	1.c	Et	1g	vi-	.	.
2E/	vi-	.	.	.	.	.	.	.	.
=26-	=26-	=26-	=26-	=26-	=26-	=26-	=26-	=26-	=26-
1F	-diſ-	0r	.	.	.	1a	-diſ-	00r	.
.	.	.	.	2c/	vi-	.	.	.	.
2D/	-ſet	.	.	1d	-diſ-	2f\	-ſet	.	.
2.G\	gra-	.	.	.	.	2.b-\	gra-	.	.
=27-	=27-	=27-	=27-	=27-	=27-	=27-	=27-	=27-	=27-
.	.	2r	.	1d	-set	.	.	.	.
4G\	-ti-	.	.	.	.	4b-\	-ti-	.	.
2F#X/	-am	1d	Et	.	.	2a\	-am	.	.
1G	De-	.	.	1r	.	4b-\	De-	.	.
.	.	.	.	.	.	4a\	.	.	.
.	.	2Bn/	vi-	.	.	4g\	.	.	.
.	.	.	.	.	.	4f\	.	.	.
*	*	*	*	*	*ij	*	*	*custos:cc	*
!	!	!	!	!	!	!	!	!LO:LB:g=original	!
=28-	=28-	=28-	=28-	=28-	=28-	=28-	=28-	=28-	=28-
1C	-i	1c	-diſ-	2r	.	1e	.	2r	.
.	.	.	.	1c	Et	.	.	2cc\	Et
00r	.	2G/	-ſet	.	.	1d	-i	1dd	vi-
!	!	!	!	!LO:N:acc=#	!	!	!	!	!
.	.	2.g\	gra-	2Bn/	vi-	.	.	.	.
=29-	=29-	=29-	=29-	=29-	=29-	=29-	=29-	=29-	=29-
.	.	.	.	1c	-dis-	0r	.	1ee	-diſ-
.	.	4g\	-ti-	.	.	.	.	.	.
.	.	2e\	-am	.	.	.	.	.	.
.	.	1a	De-	2A/	-set	.	.	2cc\	-ſet
*	*	*	*	*	*Xij	*	*	*	*
.	.	.	.	2.d\	gra-	.	.	2.ff\	gra-
=30-	=30-	=30-	=30-	=30-	=30-	=30-	=30-	=30-	=30-
.	.	1A	-i	.	.	1a	gra-	.	.
.	.	.	.	4d\	-ti-	.	.	4ff\	-ti-
.	.	.	.	2c#X/	-am	.	.	2ee\	-am
*	*	*	*	*custos:d	*	*	*	*	*
!	!	!	!	!LO:LB:g=original	!	!	!	!	!
2r	.	1r	.	4d\	De-	2f\	-ti-	4ff\	De-
.	.	.	.	4c#/	.	.	.	4ee\	.
2.G\	gra-	.	.	4B-y/	.	2g\	-am	4dd\	.
.	.	.	.	4A/	.	.	.	4cc\	.
=31-	=31-	=31-	=31-	=31-	=31-	=31-	=31-	=31-	=31-
.	.	0r	.	2G/	.	0d	De-	2b-y/	.
4G\	-ti-	.	.	.	.	.	.	.	.
2F#X/	-am	.	.	2A/	.	.	.	2a/	.
!	!	!	!	!LO:N:acc=#	!	!	!	!	!
1G	De-	.	.	4Bn/	.	.	.	0.g	-i
.	.	.	.	2cny/	.	.	.	.	.
!	!	!	!	!LO:N:acc=#	!	!	!	!	!
.	.	.	.	4Bn/	.	.	.	.	.
=32-	=32-	=32-	=32-	=32-	=32-	=32-	=32-	=32-	=32-
0C	-i	0r	.	0c	-i	0e	-i	.	.
*custos:c	*	*	*	*	*	*custos:cc	*	*	*
!LO:LB:g=original	!	!LO:LB:g=original	!	!	!	!LO:LB:g=original	!	!	!
=33-	=33-	=33-	=33-	=33-	=33-	=33-	=33-	=33-	=33-
*M3/1	*	*M3/1	*	*M3/1	*	*M3/1	*	*M3/1	*
*met(O|3)	*	*met(O|3/2)	*	*met(O|3)	*	*met(O|3)	*	*met(O|3/2)	*
!	!	!	!	!	!	!LO:N:vis=00	!	!	!
1c	Ga-	1e	Ga-	1c	Ga-	1%3r	.	1g	Ga-
1c	-ui-	1c	-ui-	1A	-ui-	.	.	1f	-ui-
1B-	-ſus	1d	-ſus	1G	-ſus	.	.	1g	-ſus
=34-	=34-	=34-	=34-	=34-	=34-	=34-	=34-	=34-	=34-
1A	eſt	1e	eſt	0c	eſt	1%3ryy	.	1a	eſt
2Fny/	al-	2f\	al-	.	.	.	.	2a/	al-
2A\	-le-	2c/	-le-	.	.	.	.	2cc\	-le-
1G	-lu-	1d	-lu-	1r	.	.	.	1b-	-lu-
=35-	=35-	=35-	=35-	=35-	=35-	=35-	=35-	=35-	=35-
*	*	*	*	*	*ij	*	*	*	*
0F	-ia	0f	-ia	1f	Ga-	1cc	Ga-	0a	-ia
.	.	.	.	1a	-vi-	1cc	-ui-	.	.
1r	.	1r	.	1g	-sus	1b-	-ſus	1r	.
=36-	=36-	=36-	=36-	=36-	=36-	=36-	=36-	=36-	=36-
1%3r	.	1d	/Ga-	1f	est	1a	eſt	1%3r	.
*	*	*	*	*	*Xij	*	*	*	*
.	.	1d	-vi-	2d\	al-	2f\	al-	.	.
.	.	.	.	2f\	-le-	2f\	-le-	.	.
.	.	1c	-sus	1e	-lu-	1g	-lu-	.	.
*	*ij	*	*	*	*	*	*	*custos:ff	*ij
!	!	!	!	!	!	!	!	!LO:LB:g=original	!
=37-	=37-	=37-	=37-	=37-	=37-	=37-	=37-	=37-	=37-
1d	Ga-	1f	est	0f	-ia	0a	-ia	1ff	ga-
1d	-vi-	1d	al-	.	.	.	.	1ff	-vi-
1c	-sus	1e	-le-	1r	.	1ryy	.	1ee	-sus
=38-	=38-	=38-	=38-	=38-	=38-	=38-	=38-	=38-	=38-
1B-	Al-	1.f	-lu-	1d	al-	1%3r	.	1dd	al-
2A\	-le-	.	.	1f	-le-	.	.	2cc\	-le-
2B-\	.	2d\	.	.	.	.	.	2dd\	.
1G	-lu-	1e	.	1g	-lu-	.	.	1b-	-lu-
*	*	*	*	*custos:c	*	*	*	*	*
!	!	!	!	!LO:LB:g=original	!	!	!	!	!
=39-	=39-	=39-	=39-	=39-	=39-	=39-	=39-	=39-	=39-
*M2/1	*	*M2/1	*	*M2/1	*	*M2/1	*	*M2/1	*
*met(C|)	*	*met(C|)	*	*met(C|)	*	*met(C|)	*	*met(C|)	*
1F	-ia	1f	-ia/	1c	-ia	1r	.	1a	-ia
*	*Xij	*	*	*	*	*	*	*	*Xij
2r	.	2r	.	2r	.	2r	.	1cc	et
2F/	et	2f\	et	2c/	et	2a\	et	.	.
=40-	=40-	=40-	=40-	=40-	=40-	=40-	=40-	=40-	=40-
2F/	hor-	1.f	hor-	1.c	hor-	2a\	hor-	2cc\	hor-
2F/	-ta-	.	.	.	.	2a\	-ta-	2cc\	-ta-
0F	-ba-	.	.	.	.	0a	-ba-	1ff	-ba-
.	.	2f\	-ta-	2c/	-ta-	.	.	.	.
*	*	*	*	*	*	*	*	*	*
!	!	!LO:LB:g=original	!	!	!	!	!	!	!
=41-	=41-	=41-	=41-	=41-	=41-	=41-	=41-	=41-	=41-
.	.	1.c	-ba-	2A/	-ba-	.	.	1ff	-tur
.	.	.	.	2F/	-tur	.	.	.	.
1C	-tur	.	.	4G/	om-	1g	-tur	1ee	om-
.	.	.	.	8A/	.	.	.	.	.
.	.	.	.	8B-y/	.	.	.	.	.
.	.	2c/	-tur	1c\	.	.	.	.	.
*custos:G	*	*	*	*	*	*	*	*	*
!LO:LB:g=original	!	!	!	!	!	!	!	!	!
=42-	=42-	=42-	=42-	=42-	=42-	=42-	=42-	=42-	=42-
0G	om-	0d	om-	.	.	0g	om-	0dd	-nes
!	!	!	!	!LO:N:acc=#	!	!	!	!	!
.	.	.	.	4Bn/	.	.	.	.	.
.	.	.	.	4A/	.	.	.	.	.
!	!	!	!	!LO:N:acc=#	!	!	!	!	!
.	.	.	.	1Bn	.	.	.	.	.
=43-	=43-	=43-	=43-	=43-	=43-	=43-	=43-	=43-	=43-
1C	-nes	1e	-nes	2c/	-nes	0g	-nes	2r	.
.	.	.	.	2c/	in	.	.	2cc\	in
!	!	!	!	!LO:N:acc=#	!	!	!	!	!
1r	.	1r	.	2Bn/	pro-	.	.	2dd\	pro-
.	.	.	.	2.c/	-po-	.	.	2.ee\	-po-
=44-	=44-	=44-	=44-	=44-	=44-	=44-	=44-	=44-	=44-
2r	.	1c	in	.	.	0r	.	.	.
.	.	.	.	4c/	-ſi-	.	.	4ee\	-ſi-
2c\	in	.	.	2A/	-to	.	.	2ee\	-to
!LO:N:acc=#	!	!	!	!	!	!	!	!	!
2Bn\	pro-	2d\	pro-	2G/	cor-	.	.	1gg	cor-
2.c\	-po-	2.e\	-po-	2c/	-dis	.	.	.	.
=45-	=45-	=45-	=45-	=45-	=45-	=45-	=45-	=45-	=45-
.	.	.	.	2r	.	2r	.	1cc	-dis
4c\	-ſi-	4e\	-ſi-	.	.	.	.	.	.
*	*	*	*	*	*ij	*	*	*	*
2A\	-to	2f\	-to	2c/	et	2c/	in	.	.
*	*	*	*	*custos:b	*	*	*	*	*
!	!	!	!	!LO:LB:g=original	!	!	!	!	!
!	!	!	!	!LO:N:acc=#	!	!	!	!	!
2G\	cor-	1g	cor-	2Bn/	pro-	2d/	pro-	1r	.
2C/	-dis	.	.	2.c/	-po-	2.e/	-po-	.	.
=46-	=46-	=46-	=46-	=46-	=46-	=46-	=46-	=46-	=46-
1r	.	2g\	-dis	.	.	.	.	2r	.
.	.	.	.	4c/	-si-	4e/	-ſi-	.	.
.	.	2c/	per-	2A/	-to	2f\	-to	2cc\	per-
*	*	*	*	*	*	*custos:g	*	*custos:b	*
!	!	!	!	!	!	!LO:LB:g=original	!	!LO:LB:g=original	!
!	!	!	!	!	!	!	!	!LO:N:acc=#	!
2r	.	2d\	-ma-	2G/	cor-	2g\	cor-	2bn/	-ma-
2F/	per-	2f\	-ne-	2F/	-dis	4a\	-dis	1cc\	-ne-
.	.	.	.	.	.	4a\	per-	.	.
*	*	*	*	*	*Xij	*	*	*	*
=47-	=47-	=47-	=47-	=47-	=47-	=47-	=47-	=47-	=47-
2E/	-ma-	4c/	-re	2r	.	2g\	-ma-	.	.
.	.	4B-/	.	.	.	.	.	.	.
1F	-ne-	4A/	.	1c	per-	2f\	-ne-	2cc\	-re
.	.	4G/	.	.	.	.	.	.	.
.	.	2F/	.	.	.	2a\	-re	2r	.
2D/	-re	2A/	in	2d\	-ma-	2a\	in	2ff\	per-
=48-	=48-	=48-	=48-	=48-	=48-	=48-	=48-	=48-	=48-
*	*	*lig	*	*	*	*	*	*	*
2C#X/	in	1A	Do-	2e\	-ne-	1a	Do-	2ee\	-ma-
1D	Do-	.	.	2d\	-re	.	.	2.ff\	-ne-
*	*	*col	*	*	*	*	*	*	*
.	.	2.B-/	.	1f	in	1d	-mi-	.	.
.	.	.	.	.	.	.	.	4ff\	-re
2BB-/	-mi-	.	.	.	.	.	.	1dd\	in
*	*	*Xlig	*	*	*	*	*	*	*
.	.	4B-/	-mi-	.	.	.	.	.	.
*	*	*Xcol	*	*	*	*	*	*	*
=49-	=49-	=49-	=49-	=49-	=49-	=49-	=49-	=49-	=49-
*	*	*	*	*lig	*	*	*	*	*
1Cny	-no	0G	-no	1e	Do-	0g	-no	.	.
.	.	.	.	.	.	.	.	1cc	Do-
*	*	*	*	*col	*	*	*	*	*
1r	.	.	.	2.d\	.	.	.	.	.
!	!	!	!	!	!	!	!	!LO:N:acc=#	!
.	.	.	.	.	.	.	.	2bn/	-mi-
*	*	*	*	*Xlig	*	*	*	*	*
.	.	.	.	4d\	-mi-	.	.	.	.
*	*	*	*	*Xcol	*	*	*	*	*
=50-	=50-	=50-	=50-	=50-	=50-	=50-	=50-	=50-	=50-
1F	Qui-	2r	.	1c	-no	1a	Qui-	1cc	-no
.	.	1c	Qui-	.	.	.	.	.	.
2F/	-a	.	.	1r	.	2a\	-a	1r	.
2B-y\	e-	2d\	-a	.	.	2.f\	e-	.	.
=51-	=51-	=51-	=51-	=51-	=51-	=51-	=51-	=51-	=51-
2A\	-rat	2c/	e-	0r	.	.	.	0r	.
.	.	.	.	.	.	4f\	-rat	.	.
2B-\	vir	2.d\	-rat	.	.	2f\	vir	.	.
*custos:G	*	*	*	*	*	*	*	*	*
!LO:LB:g=original	!	!	!	!	!	!	!	!	!
1G	bo-	.	.	.	.	1b-	bo-	.	.
.	.	4c/	.	.	.	.	.	.	.
.	.	4d\	.	.	.	.	.	.	.
.	.	4e\	.	.	.	.	.	.	.
=52-	=52-	=52-	=52-	=52-	=52-	=52-	=52-	=52-	=52-
1F	-nus	2.f\	.	2r	.	2a\	-nus	1.cc	Qui-
*	*	*	*	*	*	*	*ij	*	*
.	.	.	.	2c/	Qui-	2a\	qui-	.	.
.	.	8e\	.	.	.	.	.	.	.
.	.	8d\	.	.	.	.	.	.	.
1r	.	2e\	.	2c/	-a	2g\	-a	.	.
.	.	2f\	vir	2f\	e-	2a\	e-	2cc\	-a
=53-	=53-	=53-	=53-	=53-	=53-	=53-	=53-	=53-	=53-
0r	.	2c/	bo-	2e\	-rat	2g\	-rat	1cc	e-
.	.	2F/	-nus	2f\	vir	1a	vir	.	.
.	.	1r	.	1d	bo-	.	.	2f/	-rat
.	.	.	.	.	.	2.f\	bo-	2f/	vir
=54-	=54-	=54-	=54-	=54-	=54-	=54-	=54-	=54-	=54-
1r	.	2r	.	1c	-nus	.	.	1g	bo-
.	.	.	.	.	.	4e/	.	.	.
.	.	1c	et	.	.	2e/	.	.	.
1F	et	.	.	0r	.	1f	-nus	1a	-nus
.	.	2.f\	ple-	.	.	.	.	.	.
*	*	*	*	*	*	*custos:f	*Xij	*	*
!	!	!	!	!	!	!LO:LB:g=original	!	!	!
=55-	=55-	=55-	=55-	=55-	=55-	=55-	=55-	=55-	=55-
2.B-\	ple-	.	.	.	.	2r	.	1r	.
.	.	4e\	.	.	.	.	.	.	.
.	.	4d\	.	.	.	2f\	et	.	.
4A\	.	4c/	.	.	.	.	.	.	.
4G\	.	1d	.	2r	.	2.b-\	ple-	2r	.
4F/	.	.	.	.	.	.	.	.	.
2G\	.	.	.	1G/	et	.	.	2dd\	et
.	.	.	.	.	.	4a\	.	.	.
=56-	=56-	=56-	=56-	=56-	=56-	=56-	=56-	=56-	=56-
0.C	-nus	4c/	.	.	.	4g\	.	2.gg\	ple-
.	.	4d\	.	.	.	4f\	.	.	.
.	.	4e\	.	2.g\	ple-	4e/	.	.	.
.	.	4f\	.	.	.	4d/	.	4ff\	.
*	*	*	*	*	*	*	*	*	*
!	!	!LO:LB:g=original	!	!	!	!	!	!	!
.	.	2g\	.	.	.	4c/	.	1ee	.
*	*	*	*	*custos:f	*	*	*	*	*
!	!	!	!	!LO:LB:g=original	!	!	!	!	!
.	.	.	.	4f\	.	4d/	.	.	.
.	.	2c/	-nus	4e\	.	4e/	.	.	.
.	.	.	.	4d\	.	4f\	.	.	.
*	*	*	*	*	*	*	*	*custos:cc	*
!	!	!	!	!	!	!	!	!LO:LB:g=original	!
=57-	=57-	=57-	=57-	=57-	=57-	=57-	=57-	=57-	=57-
.	.	1r	.	2e\	.	2g\	.	0cc	-nus
.	.	.	.	2c/	-nus	2g\	-nus	.	.
1.F	ſpi-	1f	ſpi-	1r	.	1.a	ſpi-	.	.
=58-	=58-	=58-	=58-	=58-	=58-	=58-	=58-	=58-	=58-
.	.	2c/	-ri-	2r	.	.	.	1.ff	ſpi-
2F/	-ri-	2c/	-tu	2.f\	ſpi-	2a\	-ri-	.	.
1D	-tu	2.d\	ſan-	.	.	1a	-tu	.	.
.	.	.	.	4f\	-ri-	.	.	.	.
.	.	.	.	1d\	-tu	.	.	2ff\	-ri-
.	.	4c/	.	.	.	.	.	.	.
=59-	=59-	=59-	=59-	=59-	=59-	=59-	=59-	=59-	=59-
1G	ſan-	4Bn/	.	.	.	1g	ſan-	1dd	-tu
.	.	4A/	.	.	.	.	.	.	.
.	.	2B/	.	4g\	ſan-	.	.	.	.
.	.	.	.	4f\	.	.	.	.	.
*lig	*	*	*	*	*	*	*	*	*
1C	-cto	1.c	-cto	4e\	.	1g	-cto	1ee	ſan-
.	.	.	.	4d\	.	.	.	.	.
.	.	.	.	4c/	.	.	.	.	.
.	.	.	.	4B-y/	.	.	.	.	.
=60-	=60-	=60-	=60-	=60-	=60-	=60-	=60-	=60-	=60-
1F	.	.	.	1A	.	1a	et	2ff\	-cto
.	.	2f\	et	.	.	.	.	2cc\	et
*Xlig	*	*	*	*	*	*	*	*	*
0BB-	et	2.d\	fi-	1B-	-cto	2.f\	fi-	0dd	fi-
.	.	4c/	.	.	.	8e\	.	.	.
.	.	.	.	.	.	8f\	.	.	.
=61-	=61-	=61-	=61-	=61-	=61-	=61-	=61-	=61-	=61-
.	.	2B-/	.	2r	.	2g\	.	.	.
.	.	2A/	.	2F/	et	1f	.	.	.
1C	fi-	1G	.	1c	fi-	.	.	1cc	-de
.	.	.	.	.	.	2e/	.	.	.
=62-	=62-	=62-	=62-	=62-	=62-	=62-	=62-	=62-	=62-
1F	-de	2F/	-de	1c	-de	2f\	-de	1a	Al-
.	.	2F/	Al-	.	.	2f\	Al-	.	.
!	!	!	!	!	!	!	!	!LO:N:acc=#	!
1r	.	2G/	-le-	1r	.	2e/	-le-	2bn/	-le-
.	.	2A/	-lu-	.	.	2e/	-lu-	2cc\	-lu-
*	*	*	*	*	*	*custos:d	*	*	*
!	!	!	!	!	!	!LO:LB:g=original	!	!	!
=63-	=63-	=63-	=63-	=63-	=63-	=63-	=63-	=63-	=63-
1r	.	1.B-	.	2r	.	2d/	-ia	1dd	-ia
*	*	*	*	*	*	*	*ij	*	*
.	.	.	.	1d	Al-	2f\	de	.	.
2r	.	.	.	.	.	2g\	Al-	0r	.
2C/	Al-	1A/	.	2c/	-le-	2a\	-le-	.	.
=64-	=64-	=64-	=64-	=64-	=64-	=64-	=64-	=64-	=64-
2D/	-le-	.	.	2f\	-lu-	1b-	-lu-	.	.
2E/	-lu-	2G/	.	4e\	.	.	.	.	.
.	.	.	.	4d\	.	.	.	.	.
2.F/	-ia	0A	-ia	2c/	.	0.a	-ia	2r	.
*	*	*	*	*	*	*	*	*	*ij
.	.	.	.	1f\	.	.	.	2cc\	Al-
4E/	.	.	.	.	.	.	.	.	.
*custos:D	*	*	*	*	*	*	*	*	*
!LO:LB:g=original	!	!	!	!	!	!	!	!	!
=65-	=65-	=65-	=65-	=65-	=65-	=65-	=65-	=65-	=65-
2D/	.	.	.	.	.	.	.	2dd\	-le-
2C#X/	.	.	.	2e\	.	.	.	2ee\	-lu-
*	*	*	*ij	*custos:d	*	*	*	*	*
!	!	!	!	!LO:LB:g=original	!	!	!	!	!
1D	.	2r	.	4d\	.	.	.	2ff\	-ia
.	.	.	.	4e\	.	.	.	.	.
.	.	2F/	de	4f\	.	.	.	2.dd\	Al-
.	.	.	.	4d\	.	.	.	.	.
=66-	=66-	=66-	=66-	=66-	=66-	=66-	=66-	=66-	=66-
0r	.	2G/	Al-	1e	.	1r	.	.	.
.	.	.	.	.	.	.	.	4dd\	-le-
.	.	2A/	-le-	.	.	.	.	2cc\	-lu-
.	.	1.B-	-lu-	1d	-ia	2r	.	1dd	-ia
.	.	.	.	.	.	2f\	de	.	.
=67-	=67-	=67-	=67-	=67-	=67-	=67-	=67-	=67-	=67-
1r	.	.	.	2r	.	2g\	Al-	0r	.
*	*ij	*	*	*	*ij	*	*	*	*
.	.	2A/	.	2c/	Al-	2a\	.	.	.
2r	.	2G/	.	2d\	.	2b-\	.	.	.
2Cny/	Al-	2c/	.	2e\	.	1a\	-le-	.	.
=68-	=68-	=68-	=68-	=68-	=68-	=68-	=68-	=68-	=68-
2D/	-le-	1B-	.	2f\	-le-	.	.	1r	.
2E/	-lu-	.	.	2e\	.	2g\	.	.	.
*lig	*	*	*	*	*	*lig	*	*	*Xij
*	*	*	*	*	*	*	*	*custos:ff	*
!	!	!	!	!	!	!	!	!LO:LB:g=original	!
1F	.	1A	-ia	2d\	.	1a	.	2r	.
.	.	.	.	1c\	.	.	.	2ff\	Al-
=69-	=69-	=69-	=69-	=69-	=69-	=69-	=69-	=69-	=69-
*	*	*	*Xij	*	*	*col	*	*	*
1G	.	1r	.	.	.	2.g\	.	2ee\	-le-
!	!	!	!	!LO:N:acc=#	!	!	!	!	!
.	.	.	.	2Bn/	.	.	.	2dd\	-lu-
.	.	.	.	.	.	4f\	.	.	.
*Xlig	*	*	*	*	*	*Xlig	*	*	*
*	*	*	*	*	*	*Xcol	*	*	*
2A\	.	2r	.	4c/	.	2e/	.	0cc	-ia
.	.	.	.	4B/	.	.	.	.	.
1F\	-ia	1a\	Al-	4A/	.	1f\	.	.	.
.	.	.	.	4G/	.	.	.	.	.
*	*Xij	*	*	*	*	*	*	*	*
=70-	=70-	=70-	=70-	=70-	=70-	=70-	=70-	=70-	=70-
.	.	.	.	2F/	.	.	.	.	.
2E/	Al-	2g\	-le-	2G/	-lu-	2c/	-lu-	.	.
2.D/	-le-	2.f\	-lu-	1A	-ia	1d	-ia	2r	.
*	*	*	*	*	*Xij	*	*Xij	*	*ij
.	.	.	.	.	.	.	.	1ff\	Al-
4C/	.	4e\	.	.	.	.	.	.	.
=71-	=71-	=71-	=71-	=71-	=71-	=71-	=71-	=71-	=71-
*lig	*	*	*	*	*	*	*	*	*
0BB-	-lu-	2d\	.	1r	.	1.b-	Al-	.	.
.	.	2c/	.	.	.	.	.	2ee\	-le-
.	.	2B-/	-ia.	1.B-y	Al-	.	.	1dd	-lu-
.	.	2d\	.	.	.	2a\	-le-	.	.
=72-	=72-	=72-	=72-	=72-	=72-	=72-	=72-	=72-	=72-
0C	.	2e\	.	.	.	2g\	-lu-	0cc	.
.	.	2f\	.	2A/	-le-	1f	.	.	.
.	.	2g\	.	1G	-lu-	.	.	.	.
.	.	2c/	.	.	.	2e/	.	.	.
*Xlig	*	*	*	*	*	*	*	*	*
=73-	=73-	=73-	=73-	=73-	=73-	=73-	=73-	=73-	=73-
00F	-ia.	00c	.	00F	-ia.	00f	-ia.	00a	-ia
==	==	==	==	==	==	==	==	==	==
*-	*-	*-	*-	*-	*-	*-	*-	*-	*-
!!!system-decoration: [(s1,s2,s3,s4,s5)]
!!!ENC: Andrzej Gręziak
!!!END: 2022-07-19
!!!ENC: Natalia Wrzos
!!!END: 2022-08-09
